assets/stickers/emoticons/stickers/imgly_sticker_emoticons_angel.svg

<svg height="64" viewBox="0 0 62 64" width="62" xmlns="http://www.w3.org/2000/svg"><g fill="none"><path d="m61.3 39.9c0 13-11.9 23.5-30.3 23.5s-30.3-10.5-30.3-23.5 11.9-32.5 30.3-32.5 30.3 19.5 30.3 32.5z" fill="#f7910b"/><path d="m61.3 39.9c0 13-11.9 19.5-30.3 19.5s-30.3-6.5-30.3-19.5 11.9-34.5 30.3-34.5 30.3 21.5 30.3 34.5z" fill="#f7910b"/><path d="m31 5.4c18.4 0 30.3 21.5 30.3 34.5s-11.9 19.5-30.3 19.5" fill="#f9a908"/><path d="m61.3 39.9c0 13-11.9 19.5-30.3 19.5s-30.3-6.5-30.3-19.5 11.9-32.5 30.3-32.5 30.3 19.5 30.3 32.5z" fill="#f9a908"/><path d="m.7 39.9c0-13 11.9-32.5 30.3-32.5" fill="#f9c55d"/><path d="m31 7.4c18.4 0 30.3 19.5 30.3 32.5s-11.9 23.5-30.3 23.5" fill="#f7910b"/><path d="m31 7.4c18.4 0 30.3 19.5 30.3 32.5" fill="#ea7103"/><path d="m24.7 23c.3.8-1.2.9-2.9 1.5s-2.9 1.5-3.2.7.8-2 2.5-2.6c1.6-.6 3.3-.5 3.6.4z" fill="#19bca4"/><path d="m37.3 18.4c0 .9 1.4.5 3.3.6 1.8.1 3.3.6 3.3-.3s-1.4-1.6-3.2-1.7c-1.9-.1-3.4.5-3.4 1.4z" fill="#19bca4"/><path d="m24.7 23c.3.8-1.2.9-2.9 1.5s-2.9 1.5-3.2.7" fill="#109da0"/><path d="m37.3 18.4c0 .9 1.4.5 3.3.6 1.8.1 3.3.6 3.3-.3" fill="#109da0"/><circle cx="9.3" cy="36.9" fill="#f7910b" r="1"/><circle cx="4.8" cy="38.9" fill="#f7910b" r="1.1"/><circle cx="7.8" cy="34.9" fill="#f7910b" r="1"/><circle cx="12.4" cy="36.7" fill="#f7910b" r="1"/><circle cx="51.6" cy="37.2" fill="#f9a908" r="1"/><circle cx="54.1" cy="38.6" fill="#f9a908" r="1"/><circle cx="48.8" cy="29.8" fill="#f9a908" r="1"/><circle cx="43.9" cy="28.7" fill="#f9a908" r="1.3"/><circle cx="55.5" cy="41.5" fill="#f9a908" r="1"/><circle cx="8.3" cy="40.9" fill="#f7910b" r="1"/><circle cx="9.1" cy="32.5" fill="#f7910b" r="1"/><circle cx="3.8" cy="18.7" fill="#f9a908" r="1.1"/><circle cx="7" cy="15.2" fill="#f9a908" r="1"/><circle cx="58.2" cy="21.1" fill="#f9a908" r="1"/><circle cx="57.4" cy="18.2" fill="#f9a908" r="1"/><path d="m60.5 18.7c0 .3-.2.5-.5.5s-.5-.2-.5-.5.2-.5.5-.5c.2 0 .5.3.5.5z" fill="#f9a908"/><circle cx="5" cy="21.7" fill="#f9a908" r="1"/><g transform="translate(9)"><path d="m22 1.3c-12.1 0-21.9 1.4-21.9 3 0 1.7 9.8 4.7 21.9 4.7s21.9-3 21.9-4.7-9.8-3-21.9-3zm0 4.1c-6.8 0-12.3-.8-12.3-1.7s5.5-1.7 12.3-1.7 12.3.8 12.3 1.7-5.5 1.7-12.3 1.7z" fill="#ce3674"/><path d="m22 .6c-12.1 0-21.9 1.4-21.9 3 0 1.7 9.8 3 21.9 3s21.9-1.4 21.9-3-9.8-3-21.9-3zm0 4.1c-6.8 0-12.3-.7-12.3-1.7 0-.9 5.5-1.7 12.3-1.7s12.3.8 12.3 1.7c0 1-5.5 1.7-12.3 1.7z" fill="#ea5c93"/></g><g transform="translate(9 40)"><path d="m17.4 2.6c0 1.3-3.8.7-8.6.7-4.7 0-8.6.6-8.6-.7s3.8-2.4 8.6-2.4 8.6 1.1 8.6 2.4z" fill="#f9c55d"/><path d="m43.8 2.6c0 1.3-3.8.7-8.6.7-4.7 0-8.6.6-8.6-.7s3.8-2.4 8.6-2.4c4.7 0 8.6 1.1 8.6 2.4z" fill="#f9a908"/></g><g transform="translate(14 35)"><path d="m1.7.4c.4 0 .8.2 1.2.5 1.4 1.4 3.7 1.4 5.1 0 .6-.6 1.7-.7 2.3 0 .6.6.7 1.7 0 2.3-2.7 2.7-7.1 2.7-9.8 0-.6-.6-.7-1.7 0-2.3.4-.3.8-.5 1.2-.5z" fill="#1e4784"/><path d="m.6 3.2c-.6-.6-.7-1.7 0-2.3.3-.3.7-.5 1.2-.5.4 0 .8.2 1.2.5 1.4 1.4 3.7 1.4 5.1 0 .6-.6 1.7-.7 2.3 0 .6.6.7 1.7 0 2.3" fill="#02243e"/></g><g transform="translate(37 35)"><path d="m9.3.4c-.4 0-.8.2-1.2.5-1.4 1.4-3.7 1.4-5.1 0-.6-.6-1.7-.7-2.3 0-.6.6-.7 1.7 0 2.3 2.7 2.7 7.1 2.7 9.8 0 .6-.6.6-1.7 0-2.3-.4-.3-.8-.5-1.2-.5z" fill="#1e4784"/><path d="m10.4 3.2c.6-.6.6-1.7 0-2.3-.3-.3-.7-.5-1.2-.5-.4 0-.8.2-1.2.5-1.4 1.4-3.7 1.4-5.1 0-.6-.6-1.7-.7-2.3 0-.6.6-.7 1.7 0 2.3" fill="#02243e"/></g><g transform="translate(14 42)"><path d="m24.4 7.1c0 2.6-3.3 7.3-7.4 7.3s-7.4-4.7-7.4-7.3" fill="#f7910b"/><g fill="#02243e"><g><path d="m2 5c-.6 0-1.1-.5-1.1-1.1s.5-1.1 1.1-1.1c.9 0 1.6-.7 1.6-1.6 0-.6.5-1.1 1.1-1.1s1.1.5 1.1 1.1c-.1 2.1-1.8 3.8-3.8 3.8z"/><path d="m32 5c-2.1 0-3.8-1.7-3.8-3.8 0-.6.5-1.1 1.1-1.1s1.1.5 1.1 1.1c0 .9.7 1.6 1.6 1.6.6 0 1.1.5 1.1 1.1s-.5 1.1-1.1 1.1z"/></g><path d="m17 9.9c-5 0-10.1-1.9-13.9-5.8-.4-.4-.4-1.1 0-1.6.4-.4 1.1-.4 1.6 0 6.8 6.8 17.9 6.8 24.8 0 .4-.4 1.1-.4 1.6 0 .4.4.4 1.1 0 1.6-4 3.9-9.1 5.8-14.1 5.8z"/></g></g><g fill="#12ad79"><path d="m5.5 4.9c0-.4.3-.7.7-.7s.8.3.8.7"/><circle cx="14" cy="9.9" r="1.2"/><circle cx="6.9" cy="10.5" r="3.2"/><path d="m46.8 9c.2 0 .4.2.4.4s-.2.4-.4.4"/><circle cx="51.5" cy="9.3" r="1"/><path d="m53.1 13c0-.5.4-1 1-1 .5 0 1 .4 1 1"/><circle cx="56.7" cy="7.4" r="1.8"/><circle cx="58.7" cy="13.5" r="1"/></g></g></svg>

<?xml version="1.0" encoding="UTF-8"?>
<svg width="62px" height="64px" viewBox="0 0 62 64" version="1.1" xmlns="http://www.w3.org/2000/svg" xmlns:xlink="http://www.w3.org/1999/xlink">
    <!-- Generator: Sketch 43.1 (39012) - http://www.bohemiancoding.com/sketch -->
    <title>imgly_sticker_emoticons_angel</title>
    <desc>Created with Sketch.</desc>
    <defs></defs>
    <g id="Page-1" stroke="none" stroke-width="1" fill="none" fill-rule="evenodd">
        <g id="angel" fill-rule="nonzero">
            <g id="Group">
                <path d="M61.3,39.9 C61.3,52.9 49.4,63.4 31,63.4 C12.6,63.4 0.7,52.9 0.7,39.9 C0.7,26.9 12.6,7.4 31,7.4 C49.4,7.4 61.3,26.9 61.3,39.9 Z" id="Shape" fill="#F7910B"></path>
                <path d="M61.3,39.9 C61.3,52.9 49.4,59.4 31,59.4 C12.6,59.4 0.7,52.9 0.7,39.9 C0.7,26.9 12.6,5.4 31,5.4 C49.4,5.4 61.3,26.9 61.3,39.9 Z" id="Shape" fill="#F7910B"></path>
                <path d="M31,5.4 C49.4,5.4 61.3,26.9 61.3,39.9 C61.3,52.9 49.4,59.4 31,59.4" id="Shape" fill="#F9A908"></path>
                <path d="M61.3,39.9 C61.3,52.9 49.4,59.4 31,59.4 C12.6,59.4 0.7,52.9 0.7,39.9 C0.7,26.9 12.6,7.4 31,7.4 C49.4,7.4 61.3,26.9 61.3,39.9 Z" id="Shape" fill="#F9A908"></path>
                <path d="M0.7,39.9 C0.7,26.9 12.6,7.4 31,7.4" id="Shape" fill="#F9C55D"></path>
                <path d="M31,7.4 C49.4,7.4 61.3,26.9 61.3,39.9 C61.3,52.9 49.4,63.4 31,63.4" id="Shape" fill="#F7910B"></path>
                <path d="M31,7.4 C49.4,7.4 61.3,26.9 61.3,39.9" id="Shape" fill="#EA7103"></path>
                <path d="M24.7,23 C25,23.8 23.5,23.9 21.8,24.5 C20.1,25.1 18.9,26 18.6,25.2 C18.3,24.4 19.4,23.2 21.1,22.6 C22.7,22 24.4,22.1 24.7,23 Z" id="Shape" fill="#19BCA4"></path>
                <path d="M37.3,18.4 C37.3,19.3 38.7,18.9 40.6,19 C42.4,19.1 43.9,19.6 43.9,18.7 C43.9,17.8 42.5,17.1 40.7,17 C38.8,16.9 37.3,17.5 37.3,18.4 Z" id="Shape" fill="#19BCA4"></path>
                <path d="M24.7,23 C25,23.8 23.5,23.9 21.8,24.5 C20.1,25.1 18.9,26 18.6,25.2" id="Shape" fill="#109DA0"></path>
                <path d="M37.3,18.4 C37.3,19.3 38.7,18.9 40.6,19 C42.4,19.1 43.9,19.6 43.9,18.7" id="Shape" fill="#109DA0"></path>
                <circle id="Oval" fill="#F7910B" cx="9.3" cy="36.9" r="1"></circle>
                <circle id="Oval" fill="#F7910B" cx="4.8" cy="38.9" r="1.1"></circle>
                <circle id="Oval" fill="#F7910B" cx="7.8" cy="34.9" r="1"></circle>
                <circle id="Oval" fill="#F7910B" cx="12.4" cy="36.7" r="1"></circle>
                <circle id="Oval" fill="#F9A908" cx="51.6" cy="37.2" r="1"></circle>
                <circle id="Oval" fill="#F9A908" cx="54.1" cy="38.6" r="1"></circle>
                <circle id="Oval" fill="#F9A908" cx="48.8" cy="29.8" r="1"></circle>
                <circle id="Oval" fill="#F9A908" cx="43.9" cy="28.7" r="1.3"></circle>
                <circle id="Oval" fill="#F9A908" cx="55.5" cy="41.5" r="1"></circle>
                <circle id="Oval" fill="#F7910B" cx="8.3" cy="40.9" r="1"></circle>
                <circle id="Oval" fill="#F7910B" cx="9.1" cy="32.5" r="1"></circle>
                <circle id="Oval" fill="#F9A908" cx="3.8" cy="18.7" r="1.1"></circle>
                <circle id="Oval" fill="#F9A908" cx="7" cy="15.2" r="1"></circle>
                <circle id="Oval" fill="#F9A908" cx="58.2" cy="21.1" r="1"></circle>
                <circle id="Oval" fill="#F9A908" cx="57.4" cy="18.2" r="1"></circle>
                <path d="M60.5,18.7 C60.5,19 60.3,19.2 60,19.2 C59.7,19.2 59.5,19 59.5,18.7 C59.5,18.4 59.7,18.2 60,18.2 C60.2,18.2 60.5,18.5 60.5,18.7 Z" id="Shape" fill="#F9A908"></path>
                <circle id="Oval" fill="#F9A908" cx="5" cy="21.7" r="1"></circle>
                <g transform="translate(9.000000, 0.000000)" id="Shape">
                    <path d="M22,1.3 C9.9,1.3 0.1,2.7 0.1,4.3 C0.1,6 9.9,9 22,9 C34.1,9 43.9,6 43.9,4.3 C43.9,2.6 34.1,1.3 22,1.3 Z M22,5.4 C15.2,5.4 9.7,4.6 9.7,3.7 C9.7,2.8 15.2,2 22,2 C28.8,2 34.3,2.8 34.3,3.7 C34.3,4.6 28.8,5.4 22,5.4 Z" fill="#CE3674"></path>
                    <path d="M22,0.6 C9.9,0.6 0.1,2 0.1,3.6 C0.1,5.3 9.9,6.6 22,6.6 C34.1,6.6 43.9,5.2 43.9,3.6 C43.9,2 34.1,0.6 22,0.6 Z M22,4.7 C15.2,4.7 9.7,4 9.7,3 C9.7,2.1 15.2,1.3 22,1.3 C28.8,1.3 34.3,2.1 34.3,3 C34.3,4 28.8,4.7 22,4.7 Z" fill="#EA5C93"></path>
                </g>
                <g transform="translate(9.000000, 35.000000)" id="Shape">
                    <g transform="translate(0.000000, 5.000000)">
                        <path d="M17.4,2.6 C17.4,3.9 13.6,3.3 8.8,3.3 C4.1,3.3 0.2,3.9 0.2,2.6 C0.2,1.3 4,0.2 8.8,0.2 C13.6,0.2 17.4,1.3 17.4,2.6 Z" fill="#F9C55D"></path>
                        <path d="M43.8,2.6 C43.8,3.9 40,3.3 35.2,3.3 C30.5,3.3 26.6,3.9 26.6,2.6 C26.6,1.3 30.4,0.2 35.2,0.2 C39.9,0.2 43.8,1.3 43.8,2.6 Z" fill="#F9A908"></path>
                    </g>
                    <g transform="translate(5.000000, 0.000000)">
                        <g>
                            <path d="M1.7,0.4 C2.1,0.4 2.5,0.6 2.9,0.9 C4.3,2.3 6.6,2.3 8,0.9 C8.6,0.3 9.7,0.2 10.3,0.9 C10.9,1.5 11,2.6 10.3,3.2 C7.6,5.9 3.2,5.9 0.5,3.2 C-0.1,2.6 -0.2,1.5 0.5,0.9 C0.9,0.6 1.3,0.4 1.7,0.4 Z" fill="#1E4784"></path>
                            <path d="M0.6,3.2 C-1.94289029e-15,2.6 -0.1,1.5 0.6,0.9 C0.9,0.6 1.3,0.4 1.8,0.4 C2.2,0.4 2.6,0.6 3,0.9 C4.4,2.3 6.7,2.3 8.1,0.9 C8.7,0.3 9.8,0.2 10.4,0.9 C11,1.5 11.1,2.6 10.4,3.2" fill="#02243E"></path>
                        </g>
                        <g transform="translate(23.000000, 0.000000)">
                            <path d="M9.3,0.4 C8.9,0.4 8.5,0.6 8.1,0.9 C6.7,2.3 4.4,2.3 3,0.9 C2.4,0.3 1.3,0.2 0.7,0.9 C0.1,1.5 -1.77080572e-14,2.6 0.7,3.2 C3.4,5.9 7.8,5.9 10.5,3.2 C11.1,2.6 11.1,1.5 10.5,0.9 C10.1,0.6 9.7,0.4 9.3,0.4 Z" fill="#1E4784"></path>
                            <path d="M10.4,3.2 C11,2.6 11,1.5 10.4,0.9 C10.1,0.6 9.7,0.4 9.2,0.4 C8.8,0.4 8.4,0.6 8,0.9 C6.6,2.3 4.3,2.3 2.9,0.9 C2.3,0.3 1.2,0.2 0.6,0.9 C-1.06026299e-14,1.5 -0.1,2.6 0.6,3.2" fill="#02243E"></path>
                        </g>
                    </g>
                </g>
                <g transform="translate(14.000000, 42.000000)" id="Shape">
                    <path d="M24.4,7.1 C24.4,9.7 21.1,14.4 17,14.4 C12.9,14.4 9.6,9.7 9.6,7.1" fill="#F7910B"></path>
                    <g fill="#02243E">
                        <path d="M2,5 C1.4,5 0.9,4.5 0.9,3.9 C0.9,3.3 1.4,2.8 2,2.8 C2.9,2.8 3.6,2.1 3.6,1.2 C3.6,0.6 4.1,0.1 4.7,0.1 C5.3,0.1 5.8,0.6 5.8,1.2 C5.7,3.3 4,5 2,5 Z"></path>
                        <path d="M32,5 C29.9,5 28.2,3.3 28.2,1.2 C28.2,0.6 28.7,0.1 29.3,0.1 C29.9,0.1 30.4,0.6 30.4,1.2 C30.4,2.1 31.1,2.8 32,2.8 C32.6,2.8 33.1,3.3 33.1,3.9 C33.1,4.5 32.6,5 32,5 Z"></path>
                    </g>
                    <path d="M17,9.9 C12,9.9 6.9,8 3.1,4.1 C2.7,3.7 2.7,3 3.1,2.5 C3.5,2.1 4.2,2.1 4.7,2.5 C11.5,9.3 22.6,9.3 29.5,2.5 C29.9,2.1 30.6,2.1 31.1,2.5 C31.5,2.9 31.5,3.6 31.1,4.1 C27.1,8 22,9.9 17,9.9 Z" fill="#02243E"></path>
                </g>
            </g>
            <path d="M5.5,4.9 C5.5,4.5 5.8,4.2 6.2,4.2 C6.6,4.2 7,4.5 7,4.9" id="Shape" fill="#12AD79"></path>
            <circle id="Oval" fill="#12AD79" cx="14" cy="9.9" r="1.2"></circle>
            <circle id="Oval" fill="#12AD79" cx="6.9" cy="10.5" r="3.2"></circle>
            <path d="M46.8,9 C47,9 47.2,9.2 47.2,9.4 C47.2,9.6 47,9.8 46.8,9.8" id="Shape" fill="#12AD79"></path>
            <circle id="Oval" fill="#12AD79" cx="51.5" cy="9.3" r="1"></circle>
            <path d="M53.1,13 C53.1,12.5 53.5,12 54.1,12 C54.6,12 55.1,12.4 55.1,13" id="Shape" fill="#12AD79"></path>
            <circle id="Oval" fill="#12AD79" cx="56.7" cy="7.4" r="1.8"></circle>
            <circle id="Oval" fill="#12AD79" cx="58.7" cy="13.5" r="1"></circle>
        </g>
    </g>
</svg>
